img/news/YOUR_STORY.svg

<svg fill="none" height="34" viewBox="0 0 101 34" width="101" xmlns="http://www.w3.org/2000/svg" xmlns:xlink="http://www.w3.org/1999/xlink"><clipPath id="a"><path d="m.023438.289062h100v33.6087h-100z"/></clipPath><g clip-path="url(#a)" fill="#ff2626"><path d="m100.024.289062v33.608738h-100.0005625v-33.608738zm-1.9529 1.933878h-95.77578c-.37122 0-.33633-.04204-.33633.33885v29.03551c0 .417-.04203.359.35567.359h44.22944 51.527z"/><path d="m46.296 25.1823h-2.6334c-.0576-.224-.1198-.457-.177-.6915-.4204-1.738-.8467-3.4756-1.2612-5.2156-.0454-.1901-.1119-.2674-.3183-.2573-.3843.0185-.7698.005-1.1553.0054-.259 0-.2594 0-.2594.2695v5.6058.2812h-2.4274v-16.30595c.0744-.00421.1488-.01219.2228-.01219 1.2818 0 2.5645-.00253 3.8451 0 .6222 0 1.228.10215 1.7976.36071 1.0166.46245 1.5522 1.29313 1.759 2.35433.0651.3434.0998.6918.1039 1.0413.013.8829.0088 1.7632 0 2.6448-.0122 1.0472-.4204 1.928-1.1658 2.654-.1127.1098-.132.2073-.0954.3494.5672 2.199 1.1321 4.3991 1.6946 6.6004.024.0971.0442.1993.0702.3157zm-5.7924-8.5763h1.4492c.0983.0017.1967-.0036.2943-.016.5919-.0891 1.1376-.6445 1.1531-1.2448.0249-.943.0257-1.8876-.0033-2.8302-.021-.668-.4751-1.1065-1.1406-1.1414-.5465-.0286-1.0931-.0147-1.6362-.0172-.04.0052-.0792.0157-.1165.0311z"/><path d="m80.7264 25.3193c-.0871.0051-.1425.0106-.1976.011-.7353 0-1.4714-.0059-2.2059.0046-.177.0025-.24-.0601-.2795-.2237-.4485-1.8682-.9013-3.7356-1.3584-5.6019-.0163-.0534-.0293-.1077-.0391-.1627-.0143-.1228-.0819-.1598-.2001-.1585-.4343.0046-.8685.008-1.3032 0-.1644-.0034-.1985.0618-.1972.2102.0067.7483.0034 1.4971.0034 2.2442v3.6672h-2.4132v-16.21981c.0499-.01186.1007-.01946.1518-.0227 1.3588 0 2.7175-.01051 4.0754.01219.7895.01345 1.5408.20516 2.1861.69115.7181.54147 1.0737 1.29737 1.2003 2.16047.0591.4505.0872.9045.084 1.3588.0055.8109.0089 1.6236-.0336 2.4333-.0479.9114-.4515 1.6795-1.0972 2.3156-.1455.1434-.1712.2665-.122.457.5701 2.1979 1.135 4.3972 1.6947 6.5979.0193.0685.0332.1366.0513.2257zm-5.7776-8.5481c.5688 0 1.1073.0248 1.6425-.0063.6768-.0395 1.2423-.6142 1.2612-1.2915.0235-.9014.0248-1.8044-.003-2.7054-.0218-.7033-.4069-1.1157-1.1123-1.1906-.4986-.0529-1.0061-.026-1.5093-.0315-.2791-.0029-.2791 0-.2791.2695v4.6981z"/><path d="m26.4999 17.0276v4.4509c-.0034 1.9217-1.3004 3.4894-3.1859 3.8526-2.1222.4112-4.194-1.0174-4.5623-3.1501-.0375-.2207-.0562-.4442-.0559-.668-.0039-2.9956-.0039-5.9907 0-8.9854 0-1.8389 1.289-3.44988 3.0951-3.80428 2.7629-.54191 4.7451 1.65258 4.7157 3.79078-.0231 1.5043-.0067 3.0093-.0067 4.5135zm-2.5519-.0201v-.1888c0-1.4415 0-2.8827 0-4.3239 0-.5709-.2716-.9964-.7681-1.2566s-.9909-.2258-1.4529.0841c-.4469.3001-.6399.7332-.6391 1.2717.0051 2.9249.0059 5.8494.0026 8.7735 0 .0702 0 .1404.0079.2102.0173.1974.0755.389.1709.5626s.226.3254.3833.4458.338.2067.5306.2534c.1925.0467.3926.0528.5876.0179.3315-.0539.6326-.225.8486-.4821.2161-.2572.3326-.5833.3286-.9191.0025-1.4824 0-2.9668 0-4.4487z"/><path d="m71.6016 17.1987c0 1.4765.0029 2.953 0 4.4294-.0038 1.7102-1.0426 3.1989-2.646 3.6996-2.6255.8219-4.7401-.9606-5.0739-3.0269-.0316-.2005-.0471-.4033-.0463-.6063-.003-3.0087-.003-6.0177 0-9.027 0-2.0831 1.7325-3.77691 3.8182-3.81558 2.0944-.0391 3.5066 1.52358 3.8164 2.85878.0808.3538.1231.7154.1261 1.0783.0139 1.4706.0055 2.94.0055 4.4097zm-5.3917-.045v4.4299c-.0017.3068.0948.6062.2752.8544.1805.2482.4355.4323.7279.5253.5982.185 1.2263-.0319 1.5975-.5465.2102-.2943.2582-.6281.2582-.9762v-8.5658c0-.0559 0-.1122 0-.1682-.0274-.6243-.3124-1.0892-.8943-1.328-.945-.3876-1.9595.3123-1.9628 1.3453-.0055 1.4773-.0017 2.9533-.0017 4.4298z"/><path d="m28.4064 8.87256h2.3791v.28798 12.21536c0 .6592.322 1.1721.8769 1.4042.9649.404 1.9848-.2855 1.9852-1.3453 0-4.0861 0-8.1719 0-12.25745v-.30227h2.5418c.0034.07231.0097.14588.0097.21945v12.46767c0 2.0289-1.6114 3.7033-3.6437 3.8042-1.7884.0892-3.3099-.8727-3.9195-2.4804-.1607-.4264-.2419-.8787-.2396-1.3343 0-4.1697 0-8.3394 0-12.5093 0-.04666.0055-.09627.0101-.16984z"/><path d="m47.0091 20.9303 2.29-.164c.0336.1905.0475.3784.1026.5545.1194.3784.2186.7707.4002 1.1188.351.6726.9207.948 1.5475.8185.6365-.1312 1.1528-.7147 1.2575-1.3924.161-1.0418-.2712-1.859-.9783-2.5578-.8509-.8408-1.7397-1.6442-2.5851-2.4905-.61-.6104-1.1616-1.2784-1.4605-2.1058-.4835-1.3407-.494-2.6822.1513-3.9707.5256-1.05107 1.4059-1.66739 2.578-1.83134.8963-.12613 1.7762-.06054 2.6065.3338 1.0746.51038 1.6501 1.40964 1.9339 2.52584.0567.2228.084.4532.1223.6802.0031.043.0031.0861 0 .1291l-2.3122.4204c-.037-.1863-.0526-.3628-.1089-.5251-.0959-.2754-.1934-.5554-.3338-.8097-.2598-.4709-.6928-.6533-1.2171-.621-.4994.0307-.8299.3132-1.0254.7538-.3186.7202-.2741 1.4462.0223 2.1597.2783.6726.7193 1.2305 1.2558 1.7127.5364.4822 1.0897.9249 1.6076 1.4147.9249.8782 1.6766 1.8851 2.0407 3.127.4393 1.4987.1627 2.8785-.7917 4.1128-.412.5327-.9787.8535-1.6206 1.0304-.89.246-1.7901.2493-2.673-.0176-1.112-.3363-1.8384-1.1082-2.3068-2.1441-.3085-.6832-.4624-1.4046-.5112-2.1504.0006-.0374.0034-.0747.0084-.1118z"/><path d="m15.1081 25.1806h-2.443v-.301c0-2.0847-.0013-4.1696-.0038-6.2548-.0001-.1738-.0285-.3463-.0841-.5108-1.0322-2.9844-2.068-5.9676-3.1072-8.9497-.03364-.09796-.06432-.19675-.10342-.31531.07399-.00589.13369-.01513.19296-.01513.76346 0 1.52646.00294 2.28996-.00379.1471 0 .2216.0349.2678.18666.5016 1.63627 1.0229 3.26657 1.511 4.90697.1345.4524.1753.9325.2598 1.4.0072.054.0342.1034.0756.1387.0143-.103.0366-.206.0421-.3094.042-.9766.3611-1.8885.6449-2.8092.3394-1.1017.6742-2.2047 1.0043-3.30899.0463-.15555.1115-.20726.2737-.20516.7631.00841 1.5265.00336 2.2896.00421.0609 0 .1223.00588.2072.01051-.1778.51205-.3485 1.00435-.52 1.49663-.9 2.5785-1.7989 5.158-2.6969 7.7385-.0623.1842-.0943.3773-.0946.5717-.0067 2.0777-.0042 4.1558-.0042 6.2339z"/><path d="m89.6031 9.10169c-.14.40443-.2754.79877-.4129 1.19271-.9425 2.7049-1.8844 5.4095-2.8255 8.1139-.0446.1313-.0676.269-.0681.4078-.0042 2.1056-.0052 4.2116-.0029 6.3179v.2879h-2.4325c-.0055-.1009-.0143-.1963-.0143-.2917 0-2.071-.0067-4.1419.0046-6.2128.0021-.3948-.1534-.7349-.2753-1.0885-.9832-2.8458-1.9699-5.6906-2.9601-8.53424-.0202-.05844-.0387-.11772-.0643-.19718.071-.00588.1299-.01555.1887-.01555.7702 0 1.5404.00378 2.3122-.00463.1476 0 .2065.04751.2481.18246.5015 1.62904 1.0207 3.25274 1.5059 4.88684.1383.4658.1816.9598.269 1.4411.0072.0396.0177.0787.0337.1485.0294-.0421.0534-.0627.0542-.0841.042-1.2264.4574-2.3665.8093-3.5214.2934-.9621.5864-1.9245.8791-2.88691.0306-.10216.0634-.16817.1938-.16817.8193.00631 1.6395.00337 2.4576.00421.0338.00482.0671.01212.0997.02186z"/><path d="m63.1285 9.0806v2.4266h-.2523c-.6861 0-1.3728 0-2.06 0-.2762 0-.2771 0-.2771.2733v13.532h-2.4278v-13.7952h-2.5948v-2.43838z"/></g></svg>

<svg width="101" height="34" viewBox="0 0 101 34" fill="none" xmlns="http://www.w3.org/2000/svg">
<g clip-path="url(#clip0_524_828)">
<path d="M100.024 0.289062V33.8978H0.0234375V0.289062H100.024ZM98.0711 2.22294H2.29532C1.9241 2.22294 1.95899 2.1809 1.95899 2.56179C1.95899 12.2404 1.95899 21.9189 1.95899 31.5973C1.95899 32.0143 1.91696 31.9563 2.31466 31.9563C17.057 31.9563 31.8001 31.9563 46.5441 31.9563H98.0711V2.22294Z" fill="#FF2626"/>
<path d="M46.296 25.1823H43.6626C43.605 24.9583 43.5428 24.7253 43.4856 24.4908C43.0652 22.7528 42.6389 21.0152 42.2244 19.2752C42.179 19.0851 42.1125 19.0078 41.9061 19.0179C41.5218 19.0364 41.1363 19.0229 40.7508 19.0233C40.4918 19.0233 40.4914 19.0233 40.4914 19.2928C40.4914 21.1614 40.4914 23.03 40.4914 24.8986V25.1798H38.064V8.87385C38.1384 8.86964 38.2128 8.86166 38.2868 8.86166C39.5686 8.86166 40.8513 8.85913 42.1319 8.86166C42.7541 8.86166 43.3599 8.96381 43.9295 9.22237C44.9461 9.68482 45.4817 10.5155 45.6885 11.5767C45.7536 11.9201 45.7883 12.2685 45.7924 12.618C45.8054 13.5009 45.8012 14.3812 45.7924 15.2628C45.7802 16.31 45.372 17.1908 44.6266 17.9168C44.5139 18.0266 44.4946 18.1241 44.5312 18.2662C45.0984 20.4652 45.6633 22.6653 46.2258 24.8666C46.2498 24.9637 46.27 25.0659 46.296 25.1823ZM40.5036 16.606C41.0031 16.606 41.4781 16.606 41.9528 16.606C42.0511 16.6077 42.1495 16.6024 42.2471 16.59C42.839 16.5009 43.3847 15.9455 43.4002 15.3452C43.4251 14.4022 43.4259 13.4576 43.3969 12.515C43.3759 11.847 42.9218 11.4085 42.2563 11.3736C41.7098 11.345 41.1632 11.3589 40.6201 11.3564C40.5801 11.3616 40.5409 11.3721 40.5036 11.3875V16.606Z" fill="#FF2626"/>
<path d="M80.7264 25.3193C80.6393 25.3244 80.5839 25.3299 80.5288 25.3303C79.7935 25.3303 79.0574 25.3244 78.3229 25.3349C78.1459 25.3374 78.0829 25.2748 78.0434 25.1112C77.5949 23.243 77.1421 21.3756 76.685 19.5093C76.6687 19.4559 76.6557 19.4016 76.6459 19.3466C76.6316 19.2238 76.564 19.1868 76.4458 19.1881C76.0115 19.1927 75.5773 19.1961 75.1426 19.1881C74.9782 19.1847 74.9441 19.2499 74.9454 19.3983C74.9521 20.1466 74.9488 20.8954 74.9488 21.6425V25.3097H72.5356V9.08989C72.5855 9.07803 72.6363 9.07043 72.6874 9.06719C74.0462 9.06719 75.4049 9.05668 76.7628 9.07938C77.5523 9.09283 78.3036 9.28454 78.9489 9.77053C79.667 10.312 80.0226 11.0679 80.1492 11.931C80.2083 12.3815 80.2364 12.8355 80.2332 13.2898C80.2387 14.1007 80.2421 14.9134 80.1996 15.7231C80.1517 16.6345 79.7481 17.4026 79.1024 18.0387C78.9569 18.1821 78.9312 18.3052 78.9804 18.4957C79.5505 20.6936 80.1154 22.8929 80.6751 25.0936C80.6944 25.1621 80.7083 25.2302 80.7264 25.3193ZM74.9488 16.7712C75.5176 16.7712 76.0561 16.796 76.5913 16.7649C77.2681 16.7254 77.8336 16.1507 77.8525 15.4734C77.876 14.572 77.8773 13.669 77.8495 12.768C77.8277 12.0647 77.4426 11.6523 76.7372 11.5774C76.2386 11.5245 75.7311 11.5514 75.2279 11.5459C74.9488 11.543 74.9488 11.5459 74.9488 11.8154C74.9488 13.3816 74.9488 14.9476 74.9488 16.5135V16.7712Z" fill="#FF2626"/>
<path d="M26.4999 17.0276C26.4999 18.5114 26.4999 19.995 26.4999 21.4785C26.4965 23.4002 25.1995 24.9679 23.314 25.3311C21.1918 25.7423 19.12 24.3137 18.7517 22.181C18.7142 21.9603 18.6955 21.7368 18.6958 21.513C18.6919 18.5174 18.6919 15.5223 18.6958 12.5276C18.6958 10.6887 19.9848 9.07772 21.7909 8.72332C24.5538 8.18141 26.536 10.3759 26.5066 12.5141C26.4835 14.0184 26.4999 15.5234 26.4999 17.0276ZM23.948 17.0075V16.8187C23.948 15.3772 23.948 13.936 23.948 12.4948C23.948 11.9239 23.6764 11.4984 23.1799 11.2382C22.6834 10.978 22.189 11.0124 21.727 11.3223C21.2801 11.6224 21.0871 12.0555 21.0879 12.594C21.093 15.5189 21.0938 18.4434 21.0905 21.3675C21.0905 21.4377 21.0905 21.5079 21.0984 21.5777C21.1157 21.7751 21.1739 21.9667 21.2693 22.1403C21.3647 22.3139 21.4953 22.4657 21.6526 22.5861C21.8099 22.7065 21.9906 22.7928 22.1832 22.8395C22.3757 22.8862 22.5758 22.8923 22.7708 22.8574C23.1023 22.8035 23.4034 22.6324 23.6194 22.3753C23.8355 22.1181 23.952 21.792 23.948 21.4562C23.9505 19.9738 23.948 18.4894 23.948 17.0075Z" fill="#FF2626"/>
<path d="M71.6016 17.1987C71.6016 18.6752 71.6045 20.1517 71.6016 21.6281C71.5978 23.3383 70.559 24.827 68.9556 25.3277C66.3301 26.1496 64.2155 24.3671 63.8817 22.3008C63.8501 22.1003 63.8346 21.8975 63.8354 21.6945C63.8324 18.6858 63.8324 15.6768 63.8354 12.6675C63.8354 10.5844 65.5679 8.89059 67.6536 8.85192C69.748 8.81282 71.1602 10.3755 71.47 11.7107C71.5508 12.0645 71.5931 12.4261 71.5961 12.789C71.61 14.2596 71.6016 15.729 71.6016 17.1987ZM66.2099 17.1537C66.2099 18.6306 66.2099 20.1071 66.2099 21.5836C66.2082 21.8904 66.3047 22.1898 66.4851 22.438C66.6656 22.6862 66.9206 22.8703 67.213 22.9633C67.8112 23.1483 68.4393 22.9314 68.8105 22.4168C69.0207 22.1225 69.0687 21.7887 69.0687 21.4406V12.8748C69.0687 12.8189 69.0687 12.7626 69.0687 12.7066C69.0413 12.0823 68.7563 11.6174 68.1744 11.3786C67.2294 10.991 66.2149 11.6909 66.2116 12.7239C66.2061 14.2012 66.2099 15.6772 66.2099 17.1537Z" fill="#FF2626"/>
<path d="M28.4064 8.87256H30.7855V9.16054C30.7855 13.2321 30.7855 17.3038 30.7855 21.3759C30.7855 22.0351 31.1075 22.548 31.6624 22.7801C32.6273 23.1841 33.6472 22.4946 33.6476 21.4348C33.6476 17.3487 33.6476 13.2629 33.6476 9.17735V8.87508H36.1894C36.1928 8.94739 36.1991 9.02096 36.1991 9.09453C36.1991 13.2501 36.1991 17.406 36.1991 21.5622C36.1991 23.5911 34.5877 25.2655 32.5554 25.3664C30.767 25.4556 29.2455 24.4937 28.6359 22.886C28.4752 22.4596 28.394 22.0073 28.3963 21.5517C28.3963 17.382 28.3963 13.2123 28.3963 9.0424C28.3963 8.99574 28.4018 8.94613 28.4064 8.87256Z" fill="#FF2626"/>
<path d="M47.0091 20.9303L49.2991 20.7663C49.3327 20.9568 49.3466 21.1447 49.4017 21.3208C49.5211 21.6992 49.6203 22.0915 49.8019 22.4396C50.1529 23.1122 50.7226 23.3876 51.3494 23.2581C51.9859 23.1269 52.5022 22.5434 52.6069 21.8657C52.7679 20.8239 52.3357 20.0067 51.6286 19.3079C50.7777 18.4671 49.8889 17.6637 49.0435 16.8174C48.4335 16.207 47.8819 15.539 47.583 14.7116C47.0995 13.3709 47.089 12.0294 47.7343 10.7409C48.2599 9.68983 49.1402 9.07351 50.3123 8.90956C51.2086 8.78343 52.0885 8.84902 52.9188 9.24336C53.9934 9.75374 54.5689 10.653 54.8527 11.7692C54.9094 11.992 54.9367 12.2224 54.975 12.4494C54.9781 12.4924 54.9781 12.5355 54.975 12.5785L52.6628 12.9989C52.6258 12.8126 52.6102 12.6361 52.5539 12.4738C52.458 12.1984 52.3605 11.9184 52.2201 11.6641C51.9603 11.1932 51.5273 11.0108 51.003 11.0431C50.5036 11.0738 50.1731 11.3563 49.9776 11.7969C49.659 12.5171 49.7035 13.2431 49.9999 13.9566C50.2782 14.6292 50.7192 15.1871 51.2557 15.6693C51.7921 16.1515 52.3454 16.5942 52.8633 17.084C53.7882 17.9622 54.5399 18.9691 54.904 20.211C55.3433 21.7097 55.0667 23.0895 54.1123 24.3238C53.7003 24.8565 53.1336 25.1773 52.4917 25.3542C51.6017 25.6002 50.7016 25.6035 49.8187 25.3366C48.7067 25.0003 47.9803 24.2284 47.5119 23.1925C47.2034 22.5093 47.0495 21.7879 47.0007 21.0421C47.0013 21.0047 47.0041 20.9674 47.0091 20.9303Z" fill="#FF2626"/>
<path d="M15.1081 25.1806H12.6651V24.8796C12.6651 22.7949 12.6638 20.71 12.6613 18.6248C12.6612 18.451 12.6328 18.2785 12.5772 18.114C11.545 15.1296 10.5092 12.1464 9.47 9.1643C9.43636 9.06634 9.40568 8.96755 9.36658 8.84899C9.44057 8.8431 9.50027 8.83386 9.55954 8.83386C10.323 8.83386 11.086 8.8368 11.8495 8.83007C11.9966 8.83007 12.0711 8.86497 12.1173 9.01673C12.6189 10.653 13.1402 12.2833 13.6283 13.9237C13.7628 14.3761 13.8036 14.8562 13.8881 15.3237C13.8953 15.3777 13.9223 15.4271 13.9637 15.4624C13.978 15.3594 14.0003 15.2564 14.0058 15.153C14.0478 14.1764 14.3669 13.2645 14.6507 12.3438C14.9901 11.2421 15.3249 10.1391 15.655 9.03481C15.7013 8.87926 15.7665 8.82755 15.9287 8.82965C16.6918 8.83806 17.4552 8.83301 18.2183 8.83386C18.2792 8.83386 18.3406 8.83974 18.4255 8.84437C18.2477 9.35642 18.077 9.84872 17.9055 10.341C17.0055 12.9195 16.1066 15.499 15.2086 18.0795C15.1463 18.2637 15.1143 18.4568 15.114 18.6512C15.1073 20.7289 15.1098 22.807 15.1098 24.8851L15.1081 25.1806Z" fill="#FF2626"/>
<path d="M89.6031 9.10169C89.4631 9.50612 89.3277 9.90046 89.1902 10.2944C88.2477 12.9993 87.3058 15.7039 86.3647 18.4083C86.3201 18.5396 86.2971 18.6773 86.2966 18.8161C86.2924 20.9217 86.2914 23.0277 86.2937 25.134V25.4219H83.8612C83.8557 25.321 83.8469 25.2256 83.8469 25.1302C83.8469 23.0592 83.8402 20.9883 83.8515 18.9174C83.8536 18.5226 83.6981 18.1825 83.5762 17.8289C82.593 14.9831 81.6063 12.1383 80.6161 9.29466C80.5959 9.23622 80.5774 9.17694 80.5518 9.09748C80.6228 9.0916 80.6817 9.08193 80.7405 9.08193C81.5107 9.08193 82.2809 9.08571 83.0527 9.0773C83.2003 9.0773 83.2592 9.12481 83.3008 9.25976C83.8023 10.8888 84.3215 12.5125 84.8067 14.1466C84.945 14.6124 84.9883 15.1064 85.0757 15.5877C85.0829 15.6273 85.0934 15.6664 85.1094 15.7362C85.1388 15.6941 85.1628 15.6735 85.1636 15.6521C85.2056 14.4257 85.621 13.2856 85.9729 12.1307C86.2663 11.1686 86.5593 10.2062 86.852 9.24379C86.8826 9.14163 86.9154 9.07562 87.0458 9.07562C87.8651 9.08193 88.6853 9.07899 89.5034 9.07983C89.5372 9.08465 89.5705 9.09195 89.6031 9.10169Z" fill="#FF2626"/>
<path d="M63.1285 9.0806V11.5072H62.8762C62.1901 11.5072 61.5034 11.5072 60.8162 11.5072C60.54 11.5072 60.5391 11.5072 60.5391 11.7805V25.3125H58.1113V11.5173H55.5165V9.07892L63.1285 9.0806Z" fill="#FF2626"/>
</g>
<defs>
<clipPath id="clip0_524_828">
<rect width="100" height="33.6087" fill="white" transform="translate(0.0234375 0.289062)"/>
</clipPath>
</defs>
</svg>
